lib/logotmp/nrk-logo-nrk-sorlandet-on-dark.svg

<svg width="115" height="24" viewBox="0 0 115 24" fill="none" xmlns="http://www.w3.org/2000/svg">
<path d="M0 17.9976V5.99865H4V17.9976H0ZM9.24381 7.90834L11.5081 17.9976H7.19917L4.49549 5.99865H6.91217C7.46635 5.99146 8.00406 6.18681 8.4245 6.54795C8.84562 6.89394 9.08495 7.37426 9.24381 7.90834ZM12 17.9976V5.99865H16V17.9976H12ZM19.0105 10.5617C18.5862 10.5658 18.1687 10.4548 17.8025 10.2405C17.4412 10.0317 17.1411 9.73152 16.9323 9.37016C16.7178 9.00389 16.6068 8.58632 16.611 8.16188C16.6061 7.74002 16.7172 7.32494 16.9323 6.96199C17.1433 6.60455 17.4431 6.30765 17.8025 6.10008C18.1689 5.88606 18.5862 5.77507 19.0105 5.77894C19.4322 5.7744 19.8471 5.88549 20.2102 6.10008C20.566 6.30947 20.8626 6.60612 21.072 6.96199C21.2868 7.32504 21.3979 7.74005 21.3933 8.16188C21.3973 8.58629 21.2863 9.00379 21.072 9.37016C20.8649 9.72993 20.5679 10.0298 20.2102 10.2405C19.8471 10.4555 19.4324 10.5666 19.0105 10.5617ZM22 17.9976V5.99865H26V17.9976H22ZM30.9737 12.5558C30.9848 12.5674 31.0693 12.7054 31.2272 12.9698C31.3851 13.2342 31.5906 13.5722 31.8439 13.9838C32.0974 14.3953 32.3649 14.8318 32.6463 15.2936C32.9278 15.7553 33.1926 16.1919 33.4408 16.6033C33.6881 17.0147 33.9697 17.4795 34.2857 17.9976H29.9598C29.6893 17.5582 29.4441 17.161 29.2245 16.8061C29.0048 16.4512 28.7713 16.0681 28.5238 15.6569C28.2758 15.2461 28.0306 14.8461 27.7882 14.457C27.5458 14.0679 27.3375 13.7272 27.1633 13.4346C26.9883 13.1419 26.8671 12.9447 26.7997 12.8431C26.6325 12.591 26.5336 12.2999 26.5127 11.9981C26.5294 11.7085 26.6226 11.4285 26.7828 11.1867C26.8503 11.074 26.9743 10.874 27.1545 10.5867C27.3348 10.2994 27.546 9.95861 27.7882 9.56428C28.0304 9.16995 28.2756 8.76716 28.5238 8.35593C28.772 7.9447 29.0055 7.55879 29.2245 7.19826C29.4445 6.83811 29.6897 6.43814 29.9598 5.99837H34.2857L30.9396 11.4571C30.8361 11.6191 30.7777 11.8059 30.7706 11.9981C30.7818 12.1999 30.8528 12.3939 30.9737 12.5558Z" fill="white"/>
<path d="M46.2911 13.3047C46.4208 13.6654 46.4856 14.0937 46.4856 14.5897C46.4856 15.266 46.37 15.8324 46.139 16.2889C45.9079 16.7453 45.581 17.1145 45.1584 17.3963C44.7357 17.6781 44.2454 17.881 43.6874 18.0049C43.1295 18.1289 42.5293 18.1909 41.8868 18.1909C41.6163 18.1909 41.3486 18.1796 41.0837 18.1571C40.8188 18.1346 40.554 18.1036 40.2891 18.0641C40.0242 18.0247 39.7509 17.9683 39.4691 17.895C39.1873 17.8218 38.8942 17.7288 38.5899 17.6161L38.3701 15.9423C38.6406 16.0437 38.9252 16.1423 39.2239 16.2381C39.5226 16.3339 39.8298 16.4157 40.1454 16.4833C40.461 16.5509 40.7766 16.6045 41.0922 16.6439C41.4078 16.6834 41.7121 16.7031 42.0052 16.7031C42.3546 16.7031 42.6674 16.6805 42.9435 16.6355C43.2197 16.5904 43.4648 16.5171 43.679 16.4157C43.8931 16.3142 44.0735 16.179 44.22 16.0099C44.3665 15.8408 44.4793 15.6436 44.5582 15.4181C44.6371 15.1927 44.6765 14.9335 44.6765 14.6404C44.6765 14.3473 44.6342 14.1163 44.5497 13.9134C44.4652 13.7105 44.3496 13.5414 44.2031 13.4062C44.0566 13.2709 43.8791 13.1526 43.6705 13.0511C43.462 12.9497 43.2281 12.8623 42.9689 12.7891C42.7096 12.7158 42.4278 12.6454 42.1235 12.5777C41.7516 12.4988 41.3881 12.403 41.033 12.2903C40.678 12.1776 40.3483 12.0423 40.0439 11.8845C39.7396 11.7267 39.4691 11.5295 39.2324 11.2928C38.9957 11.0561 38.8125 10.7715 38.6829 10.439C38.5533 10.1065 38.4885 9.70913 38.4885 9.247C38.4885 8.66088 38.5927 8.15367 38.8013 7.72535C39.0098 7.29703 39.3085 6.94198 39.6973 6.6602C40.0862 6.37841 40.5455 6.16989 41.0753 6.03463C41.605 5.89937 42.1968 5.83174 42.8505 5.83174C43.1436 5.83174 43.431 5.84583 43.7128 5.87401C43.9946 5.90219 44.2707 5.94446 44.5413 6.00081C44.8118 6.05717 45.0795 6.1248 45.3443 6.2037C45.6092 6.2826 45.86 6.38405 46.0967 6.50803L45.86 7.99587C45.6571 7.88315 45.4345 7.78453 45.1922 7.69999C44.9498 7.61545 44.6991 7.54501 44.4398 7.48865C44.1806 7.43229 43.9157 7.39002 43.6452 7.36185C43.3747 7.33367 43.1098 7.31958 42.8505 7.31958C42.5349 7.31958 42.2447 7.3393 41.9798 7.37875C41.7149 7.4182 41.481 7.48583 41.2782 7.58164C41.0753 7.67745 40.8977 7.7958 40.7456 7.93669C40.5934 8.07758 40.4807 8.24947 40.4074 8.45236C40.3342 8.65525 40.2975 8.88631 40.2975 9.14556C40.2975 9.4048 40.3342 9.62741 40.4074 9.81339C40.4807 9.99937 40.5906 10.1572 40.7371 10.2868C40.8837 10.4164 41.0555 10.5291 41.2528 10.6249C41.45 10.7207 41.6755 10.8025 41.9291 10.8701C42.1827 10.9377 42.456 11.0054 42.7491 11.073C43.1323 11.1519 43.5043 11.2477 43.865 11.3604C44.2256 11.4731 44.5666 11.6112 44.8878 11.7746C45.2091 11.9381 45.4909 12.1438 45.7332 12.3917C45.9755 12.6397 46.1615 12.944 46.2911 13.3047ZM56.8835 9.7035L55.9057 10.7405C56.0297 10.9039 56.1481 11.0786 56.2495 11.2674C56.6045 11.9268 56.7821 12.7017 56.7821 13.5922C56.7821 14.5277 56.5905 15.3392 56.2072 16.0268C55.824 16.7144 55.2971 17.2441 54.6264 17.6161C53.9558 17.988 53.1808 18.174 52.3017 18.174C51.4225 18.174 50.6983 17.9993 50.0615 17.6499C49.9177 17.571 49.7825 17.4808 49.6529 17.385L48.7511 18.36L47.9734 17.6499L48.9146 16.6467C48.7934 16.4833 48.6807 16.3086 48.5821 16.1198C48.2327 15.4491 48.058 14.6517 48.058 13.7274C48.058 12.8032 48.2411 12.0029 48.6074 11.3266C48.9738 10.6503 49.4866 10.1262 50.146 9.75422C50.8054 9.38226 51.5747 9.19628 52.4538 9.19628C53.333 9.19628 54.1107 9.37662 54.7532 9.73731C54.8913 9.81339 55.0181 9.90075 55.1421 9.99374L56.0889 8.99339L56.8835 9.7035ZM49.867 13.626C49.867 14.3163 49.9685 14.894 50.1742 15.3646L54.1079 11.1152C53.9558 10.9772 53.7839 10.8616 53.5894 10.7743C53.2738 10.6334 52.9019 10.5629 52.4736 10.5629C51.9438 10.5629 51.4845 10.6757 51.0956 10.9011C50.7067 11.1265 50.4052 11.4647 50.1911 11.9155C49.9769 12.3664 49.8698 12.9356 49.8698 13.6232L49.867 13.626ZM54.9899 13.626C54.9899 13.1638 54.9364 12.744 54.8293 12.3664C54.787 12.2199 54.7363 12.0818 54.6799 11.9522L50.7434 16.2015C50.842 16.2945 50.9434 16.379 51.059 16.4495C51.4366 16.6862 51.879 16.8045 52.3862 16.8045C52.8934 16.8045 53.3415 16.689 53.7303 16.4579C54.1192 16.2269 54.4263 15.8746 54.6518 15.4012C54.8772 14.9278 54.9899 14.3361 54.9899 13.626ZM62.4798 9.32308C62.1642 9.40762 61.8655 9.53724 61.5837 9.71195C61.3019 9.88666 61.0371 10.098 60.7891 10.346C60.7496 10.3854 60.7102 10.4305 60.6707 10.4728V9.21319L58.9462 9.46679V18.0049H60.6707V11.6168C60.8004 11.5267 60.9328 11.4421 61.0681 11.3689C61.2428 11.273 61.4175 11.1913 61.5922 11.1237C61.7669 11.0561 61.9444 10.9969 62.1248 10.9462C62.3051 10.8955 62.4939 10.8588 62.6911 10.8363C62.8884 10.8137 63.0941 10.8081 63.3083 10.8194L63.5111 9.23009C63.1392 9.20755 62.7954 9.23855 62.4798 9.32308ZM67.7464 16.7623C67.6957 16.7679 67.6365 16.7707 67.5689 16.7707C67.4223 16.7707 67.2984 16.7482 67.1969 16.7031C67.0955 16.658 67.0109 16.5875 66.9433 16.4917C66.8757 16.3959 66.8278 16.2748 66.7996 16.1282C66.7714 15.9817 66.7573 15.807 66.7573 15.6041V5.23999L65.0328 5.4936V16.3649C65.0328 16.6918 65.0779 16.9708 65.1681 17.2018C65.2582 17.4329 65.3878 17.6217 65.5569 17.7682C65.726 17.9148 65.9261 18.019 66.1571 18.081C66.3882 18.143 66.639 18.174 66.9095 18.174C67.0448 18.174 67.1744 18.1684 67.2984 18.1571C67.4223 18.1458 67.5435 18.1289 67.6619 18.1064C67.7802 18.0838 67.8788 18.0613 67.9577 18.0388L68.1268 16.7031L67.9239 16.7369C67.8563 16.7482 67.7971 16.7566 67.7464 16.7623ZM77.4089 16.9229C77.499 16.9116 77.5949 16.8891 77.6963 16.8552L77.5103 17.988C77.454 18.0106 77.3892 18.0303 77.3159 18.0472C77.2426 18.0641 77.1609 18.0838 77.0707 18.1064C76.9806 18.1289 76.8876 18.143 76.7918 18.1486C76.696 18.1543 76.5973 18.1571 76.4959 18.1571C76.1352 18.1571 75.814 18.0979 75.5322 17.9796C75.2504 17.8612 75.0306 17.6696 74.8728 17.4047C74.7883 17.2638 74.7291 17.0976 74.6896 16.906C74.5826 17.03 74.4727 17.1511 74.3571 17.261C74.0472 17.5541 73.6921 17.7795 73.292 17.9373C72.8918 18.0951 72.4156 18.174 71.8633 18.174C71.2659 18.174 70.7672 18.0613 70.367 17.8359C69.9669 17.6104 69.6682 17.3146 69.4709 16.9482C69.2737 16.5819 69.1751 16.1846 69.1751 15.7563C69.1751 15.3054 69.3019 14.8912 69.5555 14.5136C69.8091 14.136 70.1951 13.8232 70.7136 13.5752C71.2321 13.3273 71.8859 13.1807 72.6749 13.1357L74.6502 13.0032V12.5805C74.6502 12.2537 74.6192 11.9691 74.5516 11.7267C74.4839 11.4844 74.3712 11.2843 74.2134 11.1265C74.0556 10.9687 73.8386 10.8504 73.5625 10.7715C73.2863 10.6926 72.9454 10.6531 72.5396 10.6531C72.3142 10.6531 72.0859 10.6616 71.8549 10.6785C71.6238 10.6954 71.3899 10.7264 71.1532 10.7715C70.9165 10.8166 70.6714 10.8729 70.4177 10.9405C70.1641 11.0082 69.8964 11.0927 69.6147 11.1941L69.8175 9.75703C70.0993 9.64432 70.3952 9.54569 70.7052 9.46116C71.0151 9.37662 71.3448 9.31181 71.6942 9.26673C72.0437 9.22164 72.3987 9.1991 72.7594 9.1991C73.2553 9.1991 73.7006 9.24418 74.0951 9.33435C74.4896 9.42453 74.8305 9.55415 75.118 9.72322C75.4054 9.89229 75.6393 10.1008 75.8196 10.3488C75.9999 10.5968 76.1352 10.8842 76.2254 11.2111C76.3155 11.5379 76.3606 11.8986 76.3606 12.2931L76.3268 15.776C76.3155 16.193 76.3775 16.4917 76.5128 16.6721C76.6481 16.8524 76.8678 16.9426 77.1722 16.9426C77.2398 16.9426 77.3187 16.937 77.4089 16.9257V16.9229ZM74.6389 15.9113L74.6474 14.2346H73.168C72.6157 14.2346 72.1761 14.2797 71.8492 14.3699C71.5223 14.4601 71.2856 14.601 71.1391 14.7926C70.9926 14.9842 70.9193 15.2491 70.9193 15.5872C70.9193 15.8464 70.9757 16.0691 71.0884 16.255C71.2011 16.441 71.3674 16.5847 71.5872 16.6862C71.807 16.7876 72.0746 16.8383 72.3903 16.8383C72.6382 16.8383 72.8777 16.8158 73.1088 16.7707C73.3399 16.7256 73.5597 16.6524 73.7682 16.5509C73.9767 16.4495 74.174 16.3255 74.3599 16.179C74.4586 16.1001 74.5516 16.0099 74.6417 15.9141L74.6389 15.9113ZM85.9301 9.54851C85.5018 9.31181 84.9608 9.19346 84.307 9.19346C83.8223 9.19346 83.3405 9.26954 82.8615 9.42171C82.3824 9.57387 81.9287 9.79085 81.5004 10.0726C81.337 10.1797 81.1792 10.2981 81.027 10.4192V9.21037L79.3025 9.46398V18.0021H81.027V11.5802C81.1905 11.4844 81.3624 11.3942 81.5427 11.3153C81.785 11.2082 82.0274 11.1152 82.2697 11.0363C82.512 10.9574 82.7544 10.8983 82.9967 10.8588C83.239 10.8194 83.4729 10.7996 83.6984 10.7996C84.014 10.7996 84.2845 10.8419 84.5099 10.9265C84.7353 11.011 84.9213 11.1378 85.0678 11.3069C85.2144 11.4759 85.3215 11.6901 85.3891 11.9493C85.4567 12.2086 85.4905 12.5129 85.4905 12.8623V18.0021H87.2151V12.5073C87.2151 11.7408 87.108 11.1152 86.8938 10.6306C86.6797 10.1459 86.3584 9.78521 85.9301 9.54851ZM95.6856 5.4936L97.4101 5.2569V18.0049H96.0068L95.7955 17.2244C95.6687 17.3174 95.5419 17.4047 95.4151 17.4808C95.0318 17.7175 94.6401 17.8922 94.24 18.0049C93.8399 18.1177 93.4144 18.174 92.9635 18.174C92.1858 18.174 91.5179 18.0021 90.96 17.6583C90.4021 17.3146 89.9738 16.8271 89.6751 16.1959C89.3764 15.5647 89.227 14.8151 89.227 13.9472C89.227 12.9328 89.4243 12.0733 89.8188 11.3689C90.2133 10.6644 90.7346 10.1262 91.3827 9.75422C92.0308 9.38226 92.7325 9.19628 93.4876 9.19628C93.916 9.19628 94.3076 9.23291 94.6627 9.30618C95.0177 9.37944 95.3418 9.47243 95.6349 9.58514C95.6518 9.59078 95.6687 9.59923 95.6856 9.60769V5.4936ZM95.6856 16.1141V10.9039C95.5982 10.8729 95.5052 10.8363 95.4235 10.8109C95.1586 10.7264 94.8966 10.6644 94.6373 10.6249C94.3781 10.5855 94.1076 10.5658 93.8258 10.5658C93.2397 10.5658 92.7353 10.6869 92.3126 10.9293C91.8899 11.1716 91.5658 11.5267 91.3404 11.9944C91.115 12.4622 91.0023 13.0455 91.0023 13.7443C91.0023 14.4432 91.1037 15.0039 91.3066 15.4604C91.5095 15.9169 91.8026 16.255 92.1858 16.4748C92.569 16.6946 93.0311 16.8045 93.5722 16.8045C93.9329 16.8045 94.3358 16.7228 94.781 16.5594C95.0656 16.4551 95.3672 16.3029 95.6856 16.1141ZM107.292 12.0198C107.433 12.6284 107.464 13.3273 107.385 14.1163H101.276C101.299 14.5474 101.358 14.9194 101.459 15.2322C101.589 15.6267 101.781 15.9394 102.034 16.1705C102.288 16.4016 102.601 16.565 102.973 16.6608C103.345 16.7566 103.784 16.8045 104.291 16.8045C104.539 16.8045 104.787 16.7904 105.035 16.7623C105.283 16.7341 105.526 16.689 105.762 16.627C105.999 16.565 106.227 16.4946 106.447 16.4157C106.667 16.3368 106.884 16.2579 107.098 16.179L106.98 17.4808C106.675 17.6386 106.371 17.7682 106.067 17.8697C105.762 17.9711 105.438 18.0472 105.094 18.0979C104.751 18.1486 104.353 18.174 103.902 18.174C102.956 18.174 102.155 18.0078 101.502 17.6752C100.848 17.3427 100.355 16.8524 100.022 16.2043C99.6898 15.5562 99.5235 14.77 99.5235 13.8458C99.5235 13.1469 99.6165 12.5129 99.8025 11.9437C99.9885 11.3745 100.259 10.887 100.614 10.4812C100.969 10.0755 101.4 9.75985 101.907 9.53442C102.415 9.30899 102.989 9.19628 103.632 9.19628C104.274 9.19628 104.846 9.30336 105.348 9.51752C105.85 9.73167 106.264 10.0501 106.591 10.4728C106.918 10.8955 107.151 11.4111 107.292 12.0198ZM101.527 11.9268C101.423 12.2029 101.355 12.5383 101.313 12.9159H105.759C105.759 12.5777 105.72 12.2593 105.635 11.9691C105.506 11.5182 105.278 11.166 104.951 10.9124C104.624 10.6588 104.19 10.5319 103.649 10.5319C103.108 10.5319 102.691 10.6475 102.33 10.8785C101.969 11.1096 101.702 11.459 101.527 11.9268ZM114.216 16.5932C114.137 16.6101 114.05 16.627 113.954 16.6439C113.858 16.6608 113.762 16.6777 113.666 16.6946C113.571 16.7115 113.478 16.7228 113.387 16.7284C113.297 16.7341 113.213 16.7369 113.134 16.7369C112.841 16.7369 112.59 16.6862 112.381 16.5847C112.173 16.4833 112.012 16.3339 111.9 16.1367C111.787 15.9394 111.731 15.6999 111.731 15.4181V10.7348H114.114L114.3 9.38226H111.731V6.71092L110.006 7.31958V9.38226H108.704L108.518 10.7348H110.006V15.7732C110.006 16.1564 110.057 16.4861 110.158 16.7623C110.26 17.0384 110.392 17.2667 110.555 17.447C110.719 17.6273 110.911 17.7682 111.13 17.8697C111.35 17.9711 111.584 18.0444 111.832 18.0895C112.08 18.1346 112.322 18.1571 112.559 18.1571C112.739 18.1571 112.917 18.1515 113.092 18.1402C113.266 18.1289 113.427 18.112 113.573 18.0895C113.72 18.0669 113.858 18.0416 113.988 18.0134C114.117 17.9852 114.227 17.9599 114.317 17.9373L114.419 16.534C114.362 16.5566 114.295 16.5763 114.216 16.5932Z" fill="#9FDAF5"/>
</svg>

<svg xmlns="http://www.w3.org/2000/svg" viewBox="0 0 115 24"><path fill="#fff" d="M0 17.998v-12h4v12H0Zm9.244-10.09 2.264 10.09H7.2l-2.704-12h2.417a2.276 2.276 0 0 1 1.513.55c.42.346.66.826.819 1.36ZM12 17.998v-12h4v12h-4Zm7.01-7.436a2.381 2.381 0 0 1-2.078-1.192 2.345 2.345 0 0 1-.321-1.208 2.301 2.301 0 0 1 .321-1.2A2.41 2.41 0 0 1 20.21 6.1c.356.21.653.506.862.862.215.363.326.778.321 1.2a2.35 2.35 0 0 1-.321 1.208 2.4 2.4 0 0 1-.862.87 2.301 2.301 0 0 1-1.2.322ZM22 17.998v-12h4v12h-4Zm8.974-5.442c.01.011.095.15.253.414s.364.602.617 1.014a316.22 316.22 0 0 1 1.597 2.62c.247.41.529.876.845 1.394H29.96c-.27-.44-.516-.837-.736-1.192-.22-.355-.453-.738-.7-1.15-.248-.41-.493-.81-.736-1.199-.242-.39-.45-.73-.625-1.022a18.04 18.04 0 0 0-.363-.592 1.747 1.747 0 0 1-.287-.845c.016-.29.11-.57.27-.811.067-.113.191-.313.371-.6a182.106 182.106 0 0 0 1.37-2.23l.7-1.159.736-1.2h4.326l-3.346 5.46a1.079 1.079 0 0 0-.17.54c.012.202.083.396.204.558Z"/><path fill="#9FDAF5" d="M46.291 13.305c.13.36.195.789.195 1.285 0 .676-.116 1.242-.347 1.699a2.863 2.863 0 0 1-.98 1.107 4.308 4.308 0 0 1-1.472.609 8.29 8.29 0 0 1-1.8.186c-.27 0-.538-.011-.803-.034-.265-.022-.53-.053-.795-.093a7.846 7.846 0 0 1-.82-.169 9.192 9.192 0 0 1-.88-.279l-.219-1.674c.27.102.555.2.854.296.299.096.606.178.921.245.316.068.632.122.947.16.316.04.62.06.913.06.35 0 .662-.023.938-.067.277-.046.522-.119.736-.22.214-.102.395-.237.541-.406.147-.17.26-.366.338-.592a2.35 2.35 0 0 0 .118-.778c0-.293-.042-.524-.126-.727a1.423 1.423 0 0 0-.347-.507 2.191 2.191 0 0 0-.533-.355 4.237 4.237 0 0 0-.701-.262c-.26-.073-.541-.144-.846-.211a11.475 11.475 0 0 1-1.09-.288 6.262 6.262 0 0 1-.99-.405 3.265 3.265 0 0 1-.81-.592 2.448 2.448 0 0 1-.55-.854c-.13-.332-.194-.73-.194-1.192 0-.586.104-1.093.312-1.522.209-.428.508-.783.896-1.065.39-.282.848-.49 1.378-.625a7.181 7.181 0 0 1 1.775-.203c.294 0 .581.014.863.042.282.028.558.07.828.127.27.056.539.124.803.203.265.079.516.18.753.304l-.237 1.488a4.267 4.267 0 0 0-.668-.296 6.428 6.428 0 0 0-.752-.211 7.668 7.668 0 0 0-1.59-.17c-.315 0-.605.02-.87.06-.265.04-.499.107-.702.203a2.09 2.09 0 0 0-.532.355c-.153.14-.265.312-.339.515-.073.203-.11.434-.11.694 0 .259.037.481.11.667.074.186.184.344.33.474.147.13.319.242.516.338.197.096.422.178.676.245.254.068.527.135.82.203.383.079.755.175 1.116.287.36.113.702.251 1.023.415.321.163.603.369.845.617s.428.552.558.913Zm10.593-3.601-.978 1.037c.124.163.242.338.343.526.355.66.533 1.435.533 2.325 0 .936-.191 1.747-.575 2.435a4.008 4.008 0 0 1-1.58 1.59c-.671.371-1.446.557-2.325.557-.88 0-1.604-.175-2.24-.524a3.612 3.612 0 0 1-.41-.265l-.9.975-.779-.71.942-1.003a3.966 3.966 0 0 1-.333-.527c-.35-.67-.524-1.468-.524-2.393 0-.924.183-1.724.55-2.4a3.9 3.9 0 0 1 1.538-1.573c.66-.372 1.429-.558 2.308-.558.879 0 1.657.18 2.3.541.137.076.264.164.388.257l.947-1 .794.71Zm-7.017 3.922c0 .69.102 1.268.307 1.739l3.934-4.25a1.967 1.967 0 0 0-.519-.34c-.315-.142-.687-.212-1.115-.212-.53 0-.99.113-1.378.338-.39.226-.69.564-.905 1.014-.214.451-.321 1.02-.321 1.708l-.003.003Zm5.123 0a4.61 4.61 0 0 0-.16-1.26 3.404 3.404 0 0 0-.15-.414l-3.937 4.25c.099.092.2.177.316.247.378.237.82.355 1.327.355s.956-.115 1.344-.346c.39-.231.696-.583.922-1.057.225-.473.338-1.065.338-1.775Zm7.49-4.303a3.325 3.325 0 0 0-.896.389 4.41 4.41 0 0 0-.795.634c-.04.04-.079.085-.118.127v-1.26l-1.725.254v8.538h1.725v-6.388a4.23 4.23 0 0 1 .921-.493c.175-.068.352-.127.533-.178a3.594 3.594 0 0 1 1.183-.127l.203-1.589a3.217 3.217 0 0 0-1.031.093Zm5.266 7.44a1.64 1.64 0 0 1-.177.008.914.914 0 0 1-.372-.068.61.61 0 0 1-.254-.211.927.927 0 0 1-.143-.364 2.812 2.812 0 0 1-.043-.524V5.24l-1.724.254v10.87c0 .328.045.607.135.838.09.23.22.42.389.566.169.147.37.251.6.313.231.062.482.093.752.093a3.79 3.79 0 0 0 1.048-.135l.17-1.336-.203.034c-.068.011-.127.02-.178.025Zm9.663.16c.09-.011.186-.034.287-.068l-.186 1.133a1.321 1.321 0 0 1-.194.06c-.073.016-.155.036-.245.058-.09.023-.183.037-.28.043a4.986 4.986 0 0 1-.295.008c-.36 0-.682-.06-.964-.177a1.365 1.365 0 0 1-.66-.575 1.583 1.583 0 0 1-.182-.499 4.958 4.958 0 0 1-.333.355c-.31.293-.665.518-1.065.676-.4.158-.876.237-1.429.237-.597 0-1.096-.113-1.496-.338a2.228 2.228 0 0 1-.896-.888 2.475 2.475 0 0 1-.296-1.192c0-.45.127-.865.38-1.242.254-.378.64-.69 1.159-.939.518-.248 1.172-.394 1.96-.44l1.976-.132v-.422c0-.327-.03-.612-.098-.854a1.34 1.34 0 0 0-.339-.6c-.157-.158-.374-.277-.65-.356a3.778 3.778 0 0 0-1.023-.118c-.226 0-.454.009-.685.025a6.14 6.14 0 0 0-.702.093 9.979 9.979 0 0 0-1.538.423l.202-1.437c.282-.113.578-.211.888-.296.31-.084.64-.15.99-.194.349-.045.704-.068 1.064-.068.496 0 .942.045 1.336.135.395.09.736.22 1.023.39.287.168.521.377.702.625.18.248.315.535.405.862.09.327.136.688.136 1.082l-.034 3.483c-.011.417.05.716.186.896.135.18.355.27.66.27.067 0 .146-.005.236-.016v-.003Zm-2.77-1.012.008-1.676h-1.479c-.552 0-.992.045-1.319.135-.327.09-.563.231-.71.423-.146.191-.22.456-.22.794 0 .26.057.482.17.668.112.186.278.33.498.431.22.102.488.152.803.152.248 0 .488-.022.719-.067.23-.045.45-.119.66-.22.208-.101.405-.225.59-.372.1-.079.193-.17.283-.265l-.003-.003ZM85.93 9.55c-.428-.237-.97-.356-1.623-.356a4.75 4.75 0 0 0-1.445.229c-.48.152-.933.369-1.362.65a6.41 6.41 0 0 0-.473.347V9.21l-1.725.254v8.538h1.725V11.58c.163-.096.335-.186.516-.265.242-.107.484-.2.727-.279.242-.079.484-.138.727-.177.242-.04.476-.06.701-.06.316 0 .587.043.812.128.225.084.411.21.558.38.146.169.254.383.321.642.068.26.102.564.102.913v5.14h1.724v-5.495c0-.766-.107-1.392-.321-1.876-.214-.485-.536-.846-.964-1.082Zm9.756-4.055 1.724-.237v12.748h-1.403l-.212-.78c-.126.092-.253.18-.38.256a4.616 4.616 0 0 1-1.175.524c-.4.113-.826.169-1.276.169-.778 0-1.446-.172-2.004-.516a3.357 3.357 0 0 1-1.285-1.462c-.299-.631-.448-1.38-.448-2.249 0-1.014.197-1.874.592-2.578.394-.705.916-1.243 1.564-1.615a4.157 4.157 0 0 1 2.105-.558 5.825 5.825 0 0 1 2.198.412V5.494Zm0 10.62v-5.21c-.088-.031-.18-.068-.263-.093a5.126 5.126 0 0 0-1.597-.245c-.586 0-1.09.12-1.513.363a2.384 2.384 0 0 0-.973 1.065c-.225.468-.338 1.052-.338 1.75 0 .7.102 1.26.305 1.716.203.457.496.795.879 1.015.383.22.845.33 1.386.33.36 0 .764-.082 1.209-.246.285-.104.586-.256.905-.445Zm11.606-4.094c.141.608.172 1.307.093 2.096h-6.109c.023.431.082.803.183 1.116.13.395.322.707.575.939.254.23.567.394.939.49.372.096.811.143 1.318.143.248 0 .496-.014.744-.042.248-.028.491-.073.727-.135.237-.062.465-.132.685-.211.22-.08.437-.158.651-.237l-.118 1.302a5.723 5.723 0 0 1-1.886.617c-.343.05-.741.076-1.192.076-.946 0-1.747-.166-2.4-.499a3.309 3.309 0 0 1-1.48-1.47c-.332-.649-.499-1.435-.499-2.36 0-.698.094-1.332.28-1.901.186-.57.456-1.057.811-1.463a3.683 3.683 0 0 1 1.293-.947c.508-.225 1.082-.338 1.725-.338.642 0 1.214.107 1.716.322.502.214.916.532 1.243.955.327.422.56.938.701 1.547Zm-5.765-.093a4.159 4.159 0 0 0-.214.989h4.446c0-.338-.039-.657-.124-.947-.129-.45-.357-.803-.684-1.057-.327-.253-.761-.38-1.302-.38s-.958.116-1.319.347c-.361.23-.628.58-.803 1.048Zm12.689 4.666a7.334 7.334 0 0 1-.262.05l-.288.052a2.454 2.454 0 0 1-.279.033c-.09.006-.174.009-.253.009a1.71 1.71 0 0 1-.753-.152 1.088 1.088 0 0 1-.481-.448 1.424 1.424 0 0 1-.169-.719v-4.683h2.383l.186-1.353h-2.569V6.711l-1.725.609v2.062h-1.302l-.186 1.353h1.488v5.038c0 .383.051.713.152.99.102.275.234.504.397.684.164.18.356.321.575.423.22.101.454.174.702.22.248.045.49.067.727.067.18 0 .358-.006.533-.017a5.534 5.534 0 0 0 .896-.127c.129-.028.239-.053.329-.076l.102-1.403a1.277 1.277 0 0 1-.203.06Z"/></svg>
